dist/gallery/favicon.svg

<svg fill="none" height="145" viewBox="0 0 145 145" width="145" xmlns="http://www.w3.org/2000/svg"><path d="m25.3223 67.9236-10.1745 13.4393c-1.0822 1.4295-.7743 3.4504.6647 4.5048l47.7719 35.0043c1.4244 1.043 3.4403.76 4.5113-.654l61.7563-81.5755c1.082-1.4296.775-3.4505-.664-4.5048l-13.661-10.0095c-1.425-1.0437-3.441-.7606-4.512.6541l-49.508 65.3967c-.0742.098-.2332.1279-.3463.0449l-31.3271-22.9543c-1.4245-1.0438-3.4403-.7607-4.5113.654z" fill="#ffb906" stroke="#353535" stroke-width="3"/></svg>

<svg width="145" height="145" viewBox="0 0 145 145" fill="none" xmlns="http://www.w3.org/2000/svg">
<path d="M25.3223 67.9236L15.1478 81.3629C14.0656 82.7924 14.3735 84.8133 15.8125 85.8677L63.5844 120.872C65.0088 121.915 67.0247 121.632 68.0957 120.218L129.852 38.6425C130.934 37.2129 130.627 35.192 129.188 34.1377L115.527 24.1282C114.102 23.0845 112.086 23.3676 111.015 24.7823L61.507 90.179C61.4328 90.277 61.2738 90.3069 61.1607 90.2239L29.8336 67.2696C28.4091 66.2258 26.3933 66.5089 25.3223 67.9236Z" fill="#FFB906" stroke="#353535" stroke-width="3"/>
</svg>
